X: 13
T: Miss Dickson's Strathspey
C: 
R: strathspey
Q: "Slow"
B: William Shepherd "1st Collection" 1793 p.1 #3
F: http://imslp.org/wiki/File:PMLP73094-Shepherd_Collections_HMT.pdf
C: William Shepherd (17??-1812)
Z: 2012 John Chambers <jc:trillian.mit.edu>
M: C
L: 1/16
K: G
D2 |\
TG3A (cB).A.G (F2A2 A2)Bc | Td3e {e}d2cB (defg) {a}g2fe |\
d3G (cB).A.G (F2A2 A2)Bc | TE2FG A2F2 TG4 G2 :|
|: d2 |\
Tg3a g2BG (F2A2 A2)Bc | Td3e {e}d2cB (de).f.g (ed).c.B |\
Tc2ac (Bg).B.G (F2A2 A2)Bc | TE2FG A2F2 | TG4 G2 :|
